svgs/regular/peseta-sign.svg

<svg xmlns="http://www.w3.org/2000/svg" viewBox="0 0 384 512"><!--! Font Awesome Pro 6.6.0 by @fontawesome - https://fontawesome.com License - https://fontawesome.com/license (Commercial License) Copyright 2024 Fonticons, Inc. --><path d="M93.9 32C68.6 32 48 52.6 48 77.9L48 176l-24 0c-13.3 0-24 10.7-24 24s10.7 24 24 24l24 0 0 104 0 128c0 13.3 10.7 24 24 24s24-10.7 24-24l0-104 96 0c77.4 0 142-55 156.8-128l11.2 0c13.3 0 24-10.7 24-24s-10.7-24-24-24l-8.8 0C343.2 95.1 275 32 192 32L93.9 32zM302.9 176L96 176l0-96 96 0c56.4 0 103.1 41.7 110.9 96zM96 224l203.4 0c-13.8 46.3-56.6 80-107.4 80l-96 0 0-80z"/></svg>

<svg xmlns="http://www.w3.org/2000/svg" viewBox="0 0 384 512"><!--! Font Awesome Pro 6.4.0 by @fontawesome - https://fontawesome.com License - https://fontawesome.com/license (Commercial License) Copyright 2023 Fonticons, Inc. --><path d="M93.9 32C68.6 32 48 52.6 48 77.9V176H24c-13.3 0-24 10.7-24 24s10.7 24 24 24H48V328 456c0 13.3 10.7 24 24 24s24-10.7 24-24V352h96c77.4 0 142-55 156.8-128H360c13.3 0 24-10.7 24-24s-10.7-24-24-24h-8.8C343.2 95.1 275 32 192 32H93.9zM302.9 176H96V80h96c56.4 0 103.1 41.7 110.9 96zM96 224H299.4c-13.8 46.3-56.6 80-107.4 80H96V224z"/></svg>
